X:1
T:Exaudi Deus
T:Exaudi Deus
T:Orlando di Lassus
T:Abel Di Marco, Pbro.
T:Abel Di Marco, Pbro.
T:Abel Di Marco, Pbro.
C:Orlando di Lassus
Z:Abel Di Marco, Pbro.
%%score [ 1 2 3 4 ]
L:1/8
Q:1/4=88
M:4/4
K:Gmin
V:1 treble nm="Soprano" snm="S."
V:2 treble nm="Alto" snm="A."
V:3 treble-8 nm="Tenor" snm="T."
V:4 bass nm="Bajo" snm="B."
V:1
 G4 ^F2 G2 | A4 B2 B2- | B2 B2 B2 c2- | cB/A/ B2 A2 B2- | BA G3 ^F/=E/ F2 | G4 z4 | z8 | B4 A2 B2 | %8
w: E- xáu- di,|Dé- us, o-|* ra- ti- ó-|* * * * nem mé-||am,||et ne de-|
 c3 c c2 c2 | =B2 c2 d2 c_B | A2 F2 F4- | F2 =E2 G2 G2- | G2 G2 G4 | A2 c3 B B2- | %14
w: spé- xe- ris, et|ne de- spé- * *|* xe- ris|* de- pre- ca-|* ti- ó-|nem mé- * *|
 BA/G/ A2 B2 F2- | F2 G4 A2 | B3 A G2 C2 | F4 G4 | A2 B2 G2 F2 | G2 A4 B2- | B2 A2 z2 F2 | %21
w: * * * * am; in-|* tén- de|in * * me,|in- tén-|de in me, in-|tén- de in|* me, in-|
 G2 A4 B2- | BA G4 ^F2 | z2 G4 =F2 | B2 G2 G2 A2- | A2 G2 F2 =E2 | D2 A4 G2 | c4 F4 | =E4 z2 A2 | %29
w: tén- de in|* * * me|et ex-|áu- di me, et|* ex- áu- di|me, et ex-|áu- di|me, et|
 F2 B3 A G2- | G^F/=E/ F2 G4 | A2 d4 c2 | f2 d2 G4 | z2 c4 B2 | e4 d4 | G2"^rall." G2 A2 B2- | %36
w: ex- áu- * *|* * * * di|me, et ex-|áu- di me,|et ex-|áu- di|me, et ex- áu-|
 BA G4 ^F2 | !fermata!G8 |] %38
w: * * * di|me.|
V:2
 D4 D2 D2 | F4 F4 | G4 G2 G2 | G4 F4 | B,3 C D4 | D8 | z2 F2 =E2 F2 | G2 D2 D2 D2 | %8
w: E- xáu- di,|Dé- us,|o- ra- ti-|ó- nem|mé- * *|am,|et ne de-|spé- xe- ris, de-|
 F=E/D/CD E2 A,2 | D2 =E2 D2 E2 | F2 D2 D2 D2 | A,3 A, =E4 | D4 D2 D2 | F2 G4 D2 | F4 D4 | B,4 C4 | %16
w: spé- * * * * * xe-|ris, et ne de-|spé- xe- ris, de-|spé- xe- ris|de- pre- ca-|ti- ó- nem|mé- am;|in- tén-|
 D4 E4 | D4 z2 B,2 | C2 D2 E2 D2 | z8 | z2 C2 D4 | =E2 F3 C D2 | D2 E4 D2- | D2 C2 D4 | %24
w: de in|me, in-|tén- de in me,||in- tén-|de in * *|me, in- tén-|* de in|
 G,A,B,CD=E F2- | F2 D4 C2 | F3 =E D4 | =E2 F2 z2 D2- | D2 C2 F3 =E | D2 F2 B,4 | z2 D4 B,2 | %31
w: me * * * * * *|* et ex-|áu- * *|di me, et|* ex- áu- *|* di me,|et ex-|
 F4 G4 | A2 F4 =E2 | A4 G4 | G2 G4 F2 | E6 DC | B,3 C D2 D2 | !fermata!=B,8 |] %38
w: áu- di|me, et ex-|áu- di|me, et ex-|áu- * *|* * * di|me.|
V:3
 G4 A2 B2 | c4 d4 | e4 e2 e2 | d2 d2 dcBA | G4 A4 | B4 A2 B2 | c3 c c4 | z8 | z2 F2 =E2 F2 | %9
w: E- xáu- di,|Dé- us,|o- ra- ti-|ó- nem mé- * * *|* am,|et ne de-|spé- xe- ris,||et ne de-|
 G3 G G4 | z2 B2 A2 B2 | c3 c c4 | B3 B B2 B2 | c2 e2 d2 cB | c4 B4 | z6 F2- | F2 G4 A2- | %17
w: spé- xe- ris,|et ne de-|spé- xe- ris|de- pre- ca- ti-|ó- nem mé- * *|* am;|in-|* tén- de|
 A2 B3 AGF | E2 F2 z4 | c4 d4 | =e2 f3 edc | B2 c2 F4 | G4 A4 | G3 A B2 A2 | d4 B2 c2 | %25
w: * in * * *|* me,|in- tén-|de in * * *|* me, in-|tén- de|in * * me|et ex- áu-|
 d2 G2 z2 A2- | A2 F2 B4 | A4 D4 | A6 F2 | BA d2 G4 | A4 B2 d2- | d2 B2 e4 | d2 A2 c4- | c2 A2 d4 | %34
w: di me, et|* ex- áu-|di me,|et ex-|áu- * * di|* me, et|* ex- áu-|di me, et|* ex- áu-|
 c4 B4 | c6 F2 | G4 A4 | !fermata!G8 |] %38
w: di me,|et ex-|áu- di|me.|
V:4
 G,4 D,2 G,2 | F,4 B,,4 | E,4 E,2 C,2 | G,4 D,4 | E,4 D,4 | G,,2 G,2 ^F,2 G,2 | A,3 A, A,4 | %7
w: E- xáu- di,|Dé- us,|o- ra- ti-|ó- nem|mé- *|am, et ne de-|spé- xe- ris,|
 z2 G,2 ^F,2 G,2 | A,3 A, A,,4 | z2 C,2 =B,,2 C,2 | D,3 D, D,4 | z4 C,4 | G,2 G,4 G,2 | %13
w: et ne de-|spé- xe- ris,|et ne de-|spé- xe- ris|de-|pre- ca- ti-|
 F,2 C,2 G,4 | F,4 B,,4 | z8 | B,,4 C,4 | D,4 E,3 D, | C,2 B,,2 z4 | z2 F,4 G,2- | G,2 A,2 B,3 A, | %21
w: ó- nem mé-|* am;||in- tén-|de in *|* me,|in- tén-|* de in *|
 G,2 F,2 z2 B,,2- | B,,2 C,4 D,2 | E,4 D,4 | z2 G,4 F,2 | B,4 A,4 | D,4 z2 G,2- | G,2 F,2 B,2 A,2 | %28
w: * me, in-|* tén- de|in me|et ex-|áu- di|me, et|* ex- áu- di|
 A,,4 D,4- | D,2 B,,2 E,4 | D,4 G,,4 | z8 | D,4 C,4 | F,4 G,4 | C,4 z4 | z2 C,4 B,,2 | E,4 D,4 | %37
w: me, et|* ex- áu-|di me,||et ex-|áu- di|me,|et ex-|áu- di|
 !fermata!G,,8 |] %38
w: me.|

